src/assets/grab-cursor.svg

<?xml version="1.0" encoding="UTF-8"?><svg width="24px" height="24px" stroke-width="1.5" viewBox="0 0 24 24" fill="none" xmlns="http://www.w3.org/2000/svg" color="#000000"><path d="M7 10.5L4.99591 13.1721C4.41845 13.9421 4.47127 15.0141 5.1216 15.7236L8.9055 19.8515C9.28432 20.2647 9.81826 20.5 10.3789 20.5C11.4651 20.5 13.2415 20.5 15 20.5C17.4 20.5 19 19 19 16.5C19 16.5 19 16.5 19 16.5C19 16.5 19 9.64287 19 7.92859" stroke="#000000" stroke-width="1.5" stroke-linecap="round" stroke-linejoin="round"></path><path d="M16 8.49995C16 8.49995 16 8.37483 16 7.92852C16 5.6428 19 5.6428 19 7.92852" stroke="#000000" stroke-width="1.5" stroke-linecap="round" stroke-linejoin="round"></path><path d="M13 8.50008C13 8.50008 13 7.91978 13 7.02715M13 6.50008C13 6.50008 13 6.804 13 7.02715M16 8.50008C16 8.50008 16 8.37496 16 7.92865C16 7.70549 16 7.25031 16 7.02715C16 4.74144 13 4.74144 13 7.02715" stroke="#000000" stroke-width="1.5" stroke-linecap="round" stroke-linejoin="round"></path><path d="M13 8.50008C13 8.50008 13 7.91978 13 7.02715C13 4.74144 16 4.74144 16 7.02715C16 7.25031 16 7.70549 16 7.92865C16 8.37496 16 8.50008 16 8.50008" stroke="#000000" stroke-width="1.5" stroke-linecap="round" stroke-linejoin="round"></path><path d="M10 8.50005C10 8.50005 10 7.85719 10 6.50005C10 4.21434 13 4.21434 13 6.50005C13 6.50005 13 6.50005 13 6.50005C13 6.50005 13 6.80397 13 7.02713C13 7.91975 13 8.50005 13 8.50005" stroke="#000000" stroke-width="1.5" stroke-linecap="round" stroke-linejoin="round"></path><path d="M7 13.5001V6.50006C7 5.67164 7.67157 5.00006 8.5 5.00006V5.00006C9.32843 5.00006 10 5.55527 10 6.38369C10 6.42151 10 6.4603 10 6.50006C10 7.85721 10 8.50006 10 8.50006" stroke="#000000" stroke-width="1.5" stroke-linecap="round" stroke-linejoin="round"></path></svg>

<?xml version="1.0" encoding="UTF-8"?>
<svg id="Layer_1" data-name="Layer 1" xmlns="http://www.w3.org/2000/svg" version="1.1" viewBox="0 0 24 24">
  <defs>
    <style>
      .cls-1 {
        stroke: #fff;
        stroke-width: 4px;
      }

      .cls-1, .cls-2 {
        fill: none;
        stroke-linecap: round;
        stroke-linejoin: round;
      }

      .cls-2 {
        stroke: #000;
        stroke-width: 1.5px;
      }
    </style>
  </defs>
  <path class="cls-1" d="M7,10.5l-2,2.7c-.6.8-.5,1.8.1,2.6l3.8,4.1c.4.4.9.6,1.5.6h4.6c2.4,0,4-1.5,4-4h0V7.9"/>
  <path class="cls-1" d="M16,8.5v-.6c0-2.3,3-2.3,3,0"/>
  <path class="cls-1" d="M13,8.5v-1.5M13,6.5v.5M16,8.5v-1.5c0-2.3-3-2.3-3,0"/>
  <path class="cls-1" d="M13,8.5v-1.5c0-2.3,3-2.3,3,0v1.5"/>
  <path class="cls-1" d="M10,8.5v-2c0-2.3,3-2.3,3,0h0v2"/>
  <path class="cls-1" d="M7,13.5v-7c0-.8.7-1.5,1.5-1.5h0c.8,0,1.5.6,1.5,1.4h0v2.1"/>
  <path class="cls-2" d="M7,10.5l-2,2.7c-.6.8-.5,1.8.1,2.6l3.8,4.1c.4.4.9.6,1.5.6h4.6c2.4,0,4-1.5,4-4h0V7.9"/>
  <path class="cls-2" d="M16,8.5v-.6c0-2.3,3-2.3,3,0"/>
  <path class="cls-2" d="M13,8.5v-1.5c0-2.3,3-2.3,3,0v1.5"/>
  <path class="cls-2" d="M10,8.5v-2c0-2.3,3-2.3,3,0h0v2"/>
  <path class="cls-2" d="M7,13.5v-7c0-.8.7-1.5,1.5-1.5h0c.8,0,1.5.6,1.5,1.4h0v2.1"/>
</svg>
